X:1
T:English Suite II Allemande
T:BWV 807
T:J. S. Bach
%%score { ( 1 3 4 ) | ( 2 5 6 ) }
L:1/8
M:4/4
K:C
V:1 treble nm="Harp"
V:3 treble 
V:4 treble 
V:2 bass 
V:5 bass 
V:6 bass 
V:1
 e/ | e>e a/^g/a/b/ d/f/e/f/- f/f/e/d/ | c/B/A/B/ z a- a/a/^g/a/ b2- | be a>g f/e/d/e/ ^f/g/a/f/ | %4
 gd g>f e4 | d8- | d/f/e/d/ d/4c/4d/4c/4d/4c/4B/ B/G/B/e/- e>e | g>a ^f>f f/a/g/f/ e/^d/e/f/ | %8
 A/c/B/c/ ^D/c/B/A/ G/^F/E/F/ G/A/B/G/ | c/4B/4cB/ A2- A/A/G/^F/ G/E/F/G/ | %10
 ^C/E/D/E/ ^A,/G/^F/E/ ^D/C/B, B/4A/4BB/ | %11
 e/c/B/A/ ^f/4e/4ff/ f/g/4a/4g/f/ g/4[ff]/4g/4[ff]/4g/4[ff]/4e/ | e4- e7/2 e/ | %13
 e>e a/^g/a/b/ d/f/e/f/- f/f/e/d/ | c/B/A/B/ z a- a/a/^g/a/ b2- | be a>g f/e/d/e/ ^f/g/a/f/ | %16
 gd g>f e4 | d8- | d/f/e/d/ d/4c/4d/4c/4d/4c/4B/ B/G/B/e/- e>e | g>a ^f>f f/a/g/f/ e/^d/e/f/ | %20
 A/c/B/c/ ^D/c/B/A/ G/^F/E/F/ G/A/B/G/ | c/4B/4cB/ A2- A/A/G/^F/ G/E/F/G/ | %22
 ^C/E/D/E/ ^A,/G/^F/E/ ^D/C/B, B/4A/4BB/ | %23
 e/c/B/A/ ^f/4e/4ff/ f/g/4a/4g/f/ g/4[ff]/4g/4[ff]/4g/4[ff]/4e/ | e4- e7/2 B/ | %25
 B>B D/F/E/D/ ^G/E/F/E/ B/D/E/F/ | ^C/B,/A,/B,/ C/D/E/F/ G/F/E/F/ G/_B/A/G/ | %27
 c>c B/c/d/4c/4[BB]/4c/4 d>e A/B/c/d/ | c/4B/4c/4B/4c/4B/4d/ F/A/G/F/ B/G/A/G/ d/F/G/A/ | %29
{F} E>b d/f/e/d/ ^g/e/f/e/ b/d/e/f/ | ^c/B/c/A/ g>g g/a/f/g/ f/4e/4f/4e/4f/4e/4a/ | %31
 g/f/e/d/ f/4e/4ff/ f/B/c/d/ e>e | e/c/B/A/ d/4c/4dd/ d/^G/A/B/ c>c | %33
 c/A/G/F/ _B/A/^G/A/ D/G/A/=B/ c/B/c/A/ | BE e>e e/c/B/A/ a>a | z2 b>b b/a/4^g/4a/d/ cc/4B/4A/ | %36
 A4- A7/2 B/ | B>B D/F/E/D/ ^G/E/F/E/ B/D/E/F/ | ^C/B,/A,/B,/ C/D/E/F/ G/F/E/F/ G/_B/A/G/ | %39
 c>c B/c/d/4c/4[BB]/4c/4 d>e A/B/c/d/ | c/4B/4c/4B/4c/4B/4d/ F/A/G/F/ B/G/A/G/ d/F/G/A/ | %41
{F} E>b d/f/e/d/ ^g/e/f/e/ b/d/e/f/ | ^c/B/c/A/ g>g g/a/f/g/ f/4e/4f/4e/4f/4e/4a/ | %43
 g/f/e/d/ f/4e/4ff/ f/B/c/d/ e>e | e/c/B/A/ d/4c/4dd/ d/^G/A/B/ c>c | %45
 c/A/G/F/ _B/A/^G/A/ D/G/A/=B/ c/B/c/A/ | BE e>e e/c/B/A/ a>a | z2 b>b b/a/4^g/4a/d/ cc/4B/4A/ | %48
 A4- A7/2 z/ |] %49
V:2
 z/ | A,8- | A,>[I:staff -1]E A/^G/A/B/ D/F/E/F/- F/F/E/D/ | %3
[I:staff +1] C/B,/A,/B,/ ^C/D/E/C/ DA, D>^B, | B,/A,/G,/A,/ B,/C/D/B,/ C4- | %5
 C/E/D/C/ B,/D/C/D/ ^G,/A,/B,/G,/ D,/F,/E,/D,/ | C,2- C,/C,/B,,/A,,/ E,>B, E/^D/E/^F/ | %7
 A,/C/B,/C/ ^D,/C/B,/A,/ G,2- G,/G,/^F,/E,/ | ^F,/F,/G,/A,/ B,B,, E,/4D,/4E,3/2- E,/D,/C,/B,,/ | %9
 A,,/G,,/A,,/B,,/ C,/B,,/C,/A,,/ z ^F,B,G, | E,G,^C,^A, B,>=A, G,/E,/^F,/G,/ | %11
 C,>B,, C,/A,,/B,,/C,/ ^D,,E,, B,,2 | z z/ ^G,/ A,/B,/C/^D/ E2 E,3/2 z/ | A,8- | %14
 A,>[I:staff -1]E A/^G/A/B/ D/F/E/F/- F/F/E/D/ |[I:staff +1] C/B,/A,/B,/ ^C/D/E/C/ DA, D>^B, | %16
 B,/A,/G,/A,/ B,/C/D/B,/ C4- | C/E/D/C/ B,/D/C/D/ ^G,/A,/B,/G,/ D,/F,/E,/D,/ | %18
 C,2- C,/C,/B,,/A,,/ E,>B, E/^D/E/^F/ | A,/C/B,/C/ ^D,/C/B,/A,/ G,2- G,/G,/^F,/E,/ | %20
 ^F,/F,/G,/A,/ B,B,, E,/4D,/4E,3/2- E,/D,/C,/B,,/ | A,,/G,,/A,,/B,,/ C,/B,,/C,/A,,/ z ^F,B,G, | %22
 E,G,^C,^A, B,>=A, G,/E,/^F,/G,/ | C,>B,, C,/A,,/B,,/C,/ ^D,,E,, B,,2 | %24
 z z/ ^G,/ A,/B,/C/^D/ E2 E,3/2 z/ | E,,/B,,/E,/^F,/ ^G,A, B,A,G,E, | %26
 A,>A,, G,,/_B,,/A,,/G,,/ ^C,/A,,/B,,/A,,/ E,/G,,/A,,/B,,/ | %27
 ^F,,/D,/E,/^F,/ G,/A,/B,/4A,/4G,/4A,/4 B,/C/D/4C/4B,/4C/4 D>D, | G,,/D,/G,/A,/ B,C DC B,A,, | %29
 ^G,A, G,^F, E,D, C,B,, | A,,>A, _B,/A,/B,/G,/ ^C/A,/D/G,/ A,A,, | %31
 D,2- D,/D,/E,/F,/ G,/G,/A,/B,/ C/C/D/E/ | F2- F/B,,/C,/D,/ E,/E,/^F,/^G,/ A,/A,/B,/C/ | %33
 D2- D/F,/E,/D,/ ^G,/E,/F,/E,/ A,/D,/E,/F,/ | ^G,,/G,,/A,,/B,,/ C,/C,/D,/E,/ F,2- F,/D,/E,/F,/ | %35
 B,,/B,,/C,/D,/ ^G,,/G,,/A,,/B,,/ C,,C,/D,/ E,E,, | z z/ ^C,/ D,/E,/F,/^G,/ A,2 A,3/2 z/ | %37
 E,,/B,,/E,/^F,/ ^G,A, B,A,G,E, | A,>A,, G,,/_B,,/A,,/G,,/ ^C,/A,,/B,,/A,,/ E,/G,,/A,,/B,,/ | %39
 ^F,,/D,/E,/^F,/ G,/A,/B,/4A,/4G,/4A,/4 B,/C/D/4C/4B,/4C/4 D>D, | G,,/D,/G,/A,/ B,C DC B,A,, | %41
 ^G,A, G,^F, E,D, C,B,, | A,,>A, _B,/A,/B,/G,/ ^C/A,/D/G,/ A,A,, | %43
 D,2- D,/D,/E,/F,/ G,/G,/A,/B,/ C/C/D/E/ | F2- F/B,,/C,/D,/ E,/E,/^F,/^G,/ A,/A,/B,/C/ | %45
 D2- D/F,/E,/D,/ ^G,/E,/F,/E,/ A,/D,/E,/F,/ | ^G,,/G,,/A,,/B,,/ C,/C,/D,/E,/ F,2- F,/D,/E,/F,/ | %47
 B,,/B,,/C,/D,/ ^G,,/G,,/A,,/B,,/ C,,C,/D,/ E,E,, | z z/ ^C,/ D,/E,/F,/^G,/ A,2 A,3/2 z/ |] %49
V:3
 x/ | c4 B2 ^G z | A z c2 B4 | E z z2 z4 | z4 z/ d/c/B/ A/c/B/d/ | ^F>A ^G/A/B/4A/4G/4A/4 B4- | %6
 B2 A2 z/ G3/2 g>g | c2 c2 B2- B/ z/ z | x8 | x8 | x8 | x8 | z/ d/c/B/ c/^G/A/c/ B7/2 z/ | %13
 c4 B2 ^G z | A z c2 B4 | E z z2 z4 | z4 z/ d/c/B/ A/c/B/d/ | ^F>A ^G/A/B/4A/4G/4A/4 B4- | %18
 B2 A2 z/ G3/2 g>g | c2 c2 B2- B/ z/ z | x8 | x8 | x8 | x8 | z/ d/c/B/ c/^G/A/c/ B7/2 x/ | %25
 ^G3/2 z/ z2 z4 | x8 | z/ A/D z2 G3 ^F | G3/2 z/ z2 z2[I:staff +1] B,2- | B,4- B,B, E,^G, | %30
[I:staff -1] z2 z3/2 e/ ed ^c2 | x8 | x8 | x8 | x8 | a/f/e/d/- d>d dc/B/ A^G | %36
 z/ G/F/E/ F/^C/D/F/ E7/2 z/ | ^G3/2 z/ z2 z4 | x8 | z/ A/D z2 G3 ^F | %40
 G3/2 z/ z2 z2[I:staff +1] B,2- | B,4- B,B, E,^G, |[I:staff -1] z2 z3/2 e/ ed ^c2 | x8 | x8 | x8 | %46
 x8 | a/f/e/d/- d>d dc/B/ A^G | z/ G/F/E/ F/^C/D/F/ E7/2 z/ |] %49
V:4
 x/ | z/ E/A/G/ FE FD[I:staff +1] B,[I:staff -1]^G | x8 | x8 | x8 | x8 | z4 z B B>B | %7
 B2 A2 A2 G/ z/ z | x8 | x8 | x8 | x8 | z2 z/ =G/A G7/2 z/ | %13
 z/ E/A/G/ FE FD[I:staff +1] B,[I:staff -1]^G | x8 | x8 | x8 | x8 | z4 z B B>B | B2 A2 A2 G/ z/ z | %20
 x8 | x8 | x8 | x8 | z2 z/ =G/A G7/2 x/ | E3/2 z/ z2 z4 | x8 | x8 | x8 | x8 | x8 | x8 | x8 | x8 | %34
 x8 | x8 | z2 z/ =C/D C7/2 z/ | E3/2 z/ z2 z4 | x8 | x8 | x8 | x8 | x8 | x8 | x8 | x8 | x8 | x8 | %48
 z2 z/ =C/D C7/2 z/ |] %49
V:5
 x/ | x8 | z6 ^G,2 | x8 | x8 | x8 | x8 | x8 | x8 | z4 B,,4- | B,,4 z4 | x8 | %12
 E,4 z/ E,,3/2- E,,3/2 z/ | x8 | z6 ^G,2 | x8 | x8 | x8 | x8 | x8 | x8 | z4 B,,4- | B,,4 z4 | x8 | %24
 E,4 z/ E,,3/2- E,,3/2 x/ | x8 | x8 | x8 | x8 | x8 | A,3/2 z/ z2 z2 A,2- | A,2 z2 z4 | x8 | x8 | %34
 x8 | x8 | A,,4 z/ A,,3/2- A,,3/2 z/ | x8 | x8 | x8 | x8 | x8 | A,3/2 z/ z2 z2 A,2- | A,2 z2 z4 | %44
 x8 | x8 | x8 | x8 | A,,4 z/ A,,3/2- A,,3/2 x/ |] %49
V:6
 x/ | x8 | x8 | x8 | x8 | x8 | x8 | x8 | x8 | x8 | x8 | x8 | z4 z/ E,,/^G,,/B,,/ z3/2 z/ | x8 | %14
 x8 | x8 | x8 | x8 | x8 | x8 | x8 | x8 | x8 | x8 | z4 z/ E,,/^G,,/B,,/ z3/2 x/ | x8 | x8 | x8 | %28
 x8 | x8 | x8 | x8 | x8 | x8 | x8 | x8 | z4 z/ A,,/^C,/E,/ z3/2 z/ | x8 | x8 | x8 | x8 | x8 | x8 | %43
 x8 | x8 | x8 | x8 | x8 | z4 z/ A,,/^C,/E,/ z3/2 x/ |] %49

